build/img/icon/team-icon.svg

<svg width="39" height="36" viewBox="0 0 39 36" fill="none" xmlns="http://www.w3.org/2000/svg">
<path d="M0 0H7V5.5" transform="translate(1 12)" stroke="#2E3237" stroke-width="2"/>
<path d="M0 0H7V5.5" transform="translate(38 12) scale(-1 1)" stroke="#2E3237" stroke-width="2"/>
<mask id="path-3-inside-1" fill="white">
<path fill-rule="evenodd" clip-rule="evenodd" d="M13.626 0H8C3.58203 0 0 3.58172 0 8V17H7V36H32V17H39V8C39 3.58172 35.418 0 31 0H25.374C24.3311 2.36495 22.0928 4 19.5 4C16.9072 4 14.6689 2.36495 13.626 0Z"/>
</mask>
<path d="M13.626 0L15.4559 -0.807027L14.9298 -2H13.626V0ZM0 17H-2V19H0V17ZM7 17H9V15H7V17ZM7 36H5V38H7V36ZM32 36V38H34V36H32ZM32 17V15H30V17H32ZM39 17V19H41V17H39ZM25.374 0V-2H24.0702L23.5441 -0.807027L25.374 0ZM8 2H13.626V-2H8V2ZM2 8C2 4.68634 4.68655 2 8 2V-2C2.47751 -2 -2 2.4771 -2 8H2ZM2 17V8H-2V17H2ZM7 15H0V19H7V15ZM9 36V17H5V36H9ZM32 34H7V38H32V34ZM30 17V36H34V17H30ZM39 15H32V19H39V15ZM37 8V17H41V8H37ZM31 2C34.3134 2 37 4.68634 37 8H41C41 2.4771 36.5225 -2 31 -2V2ZM25.374 2H31V-2H25.374V2ZM19.5 6C22.9767 6 25.8798 3.80953 27.204 0.807027L23.5441 -0.807027C22.7823 0.920365 21.2089 2 19.5 2V6ZM11.796 0.807027C13.1202 3.80953 16.0233 6 19.5 6V2C17.7911 2 16.2177 0.920365 15.4559 -0.807027L11.796 0.807027Z" fill="#2E3237" mask="url(#path-3-inside-1)"/>
<path d="M0 0H21" transform="translate(9 30.5)" stroke="#F24841" stroke-width="2"/>
<path d="M1.79044 2.18258C1.72426 2.22805 1.61397 2.28716 1.45956 2.35992C1.30515 2.42357 1.1875 2.47359 1.10662 2.50997C0.783088 2.63729 0.0808823 2.94544 0 3V1.43127C0.25 1.30395 1.05147 0.904862 1.40441 0.668416C1.76471 0.422875 2.01838 0.20007 2.16544 0H3.5V10H1.79044V2.18258Z" transform="translate(17.5 12)" fill="#F24841"/>
</svg>

<svg width="39" height="36" fill="none" xmlns="http://www.w3.org/2000/svg"><path d="M1 12h7v5.5M38 12h-7v5.5" stroke="#2E3237" stroke-width="2"/><mask id="a" fill="#fff"><path fill-rule="evenodd" clip-rule="evenodd" d="M13.626 0H8a8 8 0 0 0-8 8v9h7v19h25V17h7V8a8 8 0 0 0-8-8h-5.626c-1.043 2.365-3.281 4-5.874 4-2.593 0-4.831-1.635-5.874-4z"/></mask><path d="M13.626 0l1.83-.807L14.93-2h-1.304v2zM0 17h-2v2h2v-2zm7 0h2v-2H7v2zm0 19H5v2h2v-2zm25 0v2h2v-2h-2zm0-19v-2h-2v2h2zm7 0v2h2v-2h-2zM25.374 0v-2H24.07l-.526 1.193 1.83.807zM8 2h5.626v-4H8v4zM2 8a6 6 0 0 1 6-6v-4C2.478-2-2 2.477-2 8h4zm0 9V8h-4v9h4zm5-2H0v4h7v-4zm2 21V17H5v19h4zm23-2H7v4h25v-4zm-2-17v19h4V17h-4zm9-2h-7v4h7v-4zm-2-7v9h4V8h-4zm-6-6a6 6 0 0 1 6 6h4c0-5.523-4.477-10-10-10v4zm-5.626 0H31v-4h-5.626v4zM19.5 6c3.477 0 6.38-2.19 7.704-5.193l-3.66-1.614C22.782.92 21.21 2 19.5 2v4zM11.796.807C13.12 3.81 16.023 6 19.5 6V2C17.791 2 16.218.92 15.456-.807L11.796.807z" fill="#2E3237" mask="url(#a)"/><path d="M9 30.5h21" stroke="#F24841" stroke-width="2"/><path d="M19.29 14.183a2.581 2.581 0 0 1-.33.177c-.155.064-.273.114-.353.15-.324.127-1.026.435-1.107.49v-1.569c.25-.127 1.051-.526 1.404-.763.36-.245.614-.468.761-.668H21v10h-1.71v-7.817z" fill="#F24841"/></svg>
